symbols/web/1k_plus/materialsymbolsoutlined/1k_plus_wght500gradN25fill1_48px.svg

<svg xmlns="http://www.w3.org/2000/svg" height="48" width="48"><path d="M33.7 27.95h2V24.8h3.1v-1.6h-3.1v-3.15h-2v3.15h-3.1v1.6h3.1ZM22 29.9h2.45v-4.45l4.2 4.45h3.25L26.25 24l5.65-5.95h-3.25l-4.2 4.5v-4.5H22Zm-6.95 0h2.4V18.05H11.9v2.4h3.15ZM9.2 42.05q-1.3 0-2.275-.975Q5.95 40.1 5.95 38.8V9.2q0-1.35.975-2.325Q7.9 5.9 9.2 5.9h29.6q1.35 0 2.325.975.975.975.975 2.325v29.6q0 1.3-.975 2.275-.975.975-2.325.975Z"/></svg>

<svg xmlns="http://www.w3.org/2000/svg" height="48" width="48"><path d="M33.7 27.95H35.7V24.8H38.8V23.2H35.7V20.05H33.7V23.2H30.6V24.8H33.7ZM22 29.9H24.45V25.45L28.65 29.9H31.9L26.25 24L31.9 18.05H28.65L24.45 22.55V18.05H22ZM15.05 29.9H17.45V18.05H11.9V20.45H15.05ZM9.2 42.05Q7.9 42.05 6.925 41.075Q5.95 40.1 5.95 38.8V9.2Q5.95 7.85 6.925 6.875Q7.9 5.9 9.2 5.9H38.8Q40.15 5.9 41.125 6.875Q42.1 7.85 42.1 9.2V38.8Q42.1 40.1 41.125 41.075Q40.15 42.05 38.8 42.05Z"/></svg>
